packages/icons/svg/Outline/at.svg

<svg fill="none" height="24" viewBox="0 0 24 24" width="24" xmlns="http://www.w3.org/2000/svg"><path clip-rule="evenodd" d="m11.1816 15.0908c-1.704 0-3.091-1.387-3.091-3.091s1.387-3.09099 3.091-3.09099 3.091 1.38699 3.091 3.09099-1.387 3.091-3.091 3.091zm1.773-13.04686c-3.00101-.282-5.93601.781-8.049 2.909-2.11401 2.127-3.155 5.06996-2.855 8.07296.358 3.572 2.609 6.682 5.876 8.115 1.307.573 2.693.854 4.069.854 2.168 0 4.313-.699 6.084-2.055.439-.336.522-.964.186-1.403-.336-.437-.963-.52-1.402-.185-2.318 1.775-5.434 2.139-8.134.957-2.568-1.126-4.407-3.67-4.689-6.483-.24-2.405.592-4.76096 2.28399-6.46396 1.69001-1.702 4.04201-2.554 6.44501-2.326 4.055.377 7.23 3.974 7.23 8.18896v.675c0 .468-.186.904-.525 1.228-.338.324-.786.49-1.253.47-.894-.039-1.622-.88-1.622-1.874v-4.32396c0-.553-.447-1-1-1-.509 0-.911.383-.975.875-.908-.84-2.112-1.366-3.443-1.366-2.80701 0-5.091 2.285-5.091 5.09096 0 2.807 2.28399 5.091 5.091 5.091 1.7 0 3.199-.846 4.124-2.13.645.94 1.668 1.584 2.828 1.635 1.013.054 1.987-.318 2.724-1.023s1.142-1.654 1.142-2.673v-.675c0-5.23696-3.972-9.70796-9.045-10.18096z" fill="#6b7280" fill-rule="evenodd"/></svg>

<svg width="24" height="24" viewBox="0 0 24 24" fill="none" xmlns="http://www.w3.org/2000/svg">
<g id="Icon/Outline/at">
<path id="Mask" fill-rule="evenodd" clip-rule="evenodd" d="M11.1816 15.0908C9.4776 15.0908 8.0906 13.7038 8.0906 11.9998C8.0906 10.2958 9.4776 8.9088 11.1816 8.9088C12.8856 8.9088 14.2726 10.2958 14.2726 11.9998C14.2726 13.7038 12.8856 15.0908 11.1816 15.0908ZM12.9546 2.0438C9.95359 1.7618 7.01859 2.8248 4.9056 4.9528C2.79159 7.0798 1.7506 10.0228 2.0506 13.0258C2.4086 16.5978 4.6596 19.7078 7.9266 21.1408C9.2336 21.7138 10.6196 21.9948 11.9956 21.9948C14.1636 21.9948 16.3086 21.2958 18.0796 19.9398C18.5186 19.6038 18.6016 18.9758 18.2656 18.5368C17.9296 18.0998 17.3026 18.0168 16.8636 18.3518C14.5456 20.1268 11.4296 20.4908 8.7296 19.3088C6.1616 18.1828 4.3226 15.6388 4.0406 12.8258C3.8006 10.4208 4.6326 8.0648 6.32459 6.3618C8.0146 4.6598 10.3666 3.8078 12.7696 4.0358C16.8246 4.4128 19.9996 8.0098 19.9996 12.2248V12.8998C19.9996 13.3678 19.8136 13.8038 19.4746 14.1278C19.1366 14.4518 18.6886 14.6178 18.2216 14.5978C17.3276 14.5588 16.5996 13.7178 16.5996 12.7238V8.3998C16.5996 7.8468 16.1526 7.3998 15.5996 7.3998C15.0906 7.3998 14.6886 7.7828 14.6246 8.2748C13.7166 7.4348 12.5126 6.9088 11.1816 6.9088C8.37459 6.9088 6.0906 9.1938 6.0906 11.9998C6.0906 14.8068 8.37459 17.0908 11.1816 17.0908C12.8816 17.0908 14.3806 16.2448 15.3056 14.9608C15.9506 15.9008 16.9736 16.5448 18.1336 16.5958C19.1466 16.6498 20.1206 16.2778 20.8576 15.5728C21.5946 14.8678 21.9996 13.9188 21.9996 12.8998V12.2248C21.9996 6.9878 18.0276 2.5168 12.9546 2.0438Z" fill="#000000"/>
</g>
</svg>
